src/assets/logos/postgresql.svg

<svg width="97" height="100" viewBox="0 0 97 100" fill="none" xmlns="http://www.w3.org/2000/svg">
<path d="M96.4716 59.9022C95.8902 58.1365 94.3673 56.9067 92.3978 56.6116C91.4691 56.4726 90.4055 56.5319 89.147 56.792C86.9532 57.2459 85.3257 57.4187 84.138 57.4521C88.6212 49.8619 92.2667 41.2063 94.3654 33.0585C97.759 19.8837 95.9455 13.8818 93.8264 11.167C88.2183 3.98123 80.0361 0.120977 70.1652 0.00285975C64.8994 -0.0617057 60.2768 0.980837 57.8653 1.73056C55.62 1.33329 53.2059 1.11149 50.6728 1.07047C45.9244 0.99451 41.729 2.0325 38.1442 4.16582C36.1595 3.49281 32.9742 2.54408 29.2958 1.93869C20.6444 0.514446 13.6716 1.62421 8.57139 5.23722C2.3955 9.61172 -0.467472 17.2122 0.0620198 27.8276C0.230185 31.1979 2.1103 41.4524 5.0706 51.1775C6.77195 56.7673 8.58616 61.4092 10.4629 64.9755C13.1243 70.0325 15.9722 73.0105 19.1692 74.08C20.961 74.6786 24.2168 75.0978 27.6411 72.238C28.0751 72.7651 28.6542 73.2889 29.4227 73.7754C30.3987 74.3926 31.5922 74.8969 32.7841 75.1958C37.0795 76.2726 41.1029 76.0033 44.5356 74.494C44.5568 75.1062 44.573 75.6911 44.5867 76.1962C44.6094 77.0154 44.6321 77.8187 44.6621 78.57C44.8654 83.6494 45.2101 87.5989 46.2312 90.3623C46.2873 90.5142 46.3626 90.7459 46.4422 90.9916C46.9516 92.5556 47.8034 95.1739 49.9706 97.2244C52.2147 99.3487 54.9292 100 57.4153 100C58.6622 100 59.8518 99.8359 60.8953 99.6118C64.6146 98.8124 68.8388 97.5947 71.8945 93.2316C74.7836 89.107 76.188 82.8947 76.4422 73.1062C76.4751 72.8293 76.5054 72.565 76.5346 72.3132L76.5952 71.7959L77.2758 71.8559L77.4512 71.8677C81.2394 72.0409 85.8715 71.2353 88.7163 69.9102C90.9642 68.8642 98.1676 65.0507 96.4716 59.9022" fill="black"/>
<path d="M89.9943 60.9033C78.7303 63.2333 77.9558 59.4092 77.9558 59.4092C89.8485 41.7133 94.8204 19.2509 90.5303 13.7533C78.8254 -1.24298 58.5641 5.84936 58.2259 6.03318L58.1172 6.05293C55.8917 5.58958 53.4014 5.31385 50.6021 5.26789C45.5056 5.18434 41.6393 6.60782 38.7055 8.83875C38.7055 8.83875 2.56141 -6.09261 4.24268 27.6175C4.60022 34.7888 14.4932 81.8803 26.2927 67.6565C30.6056 62.4551 34.773 58.0575 34.773 58.0575C36.8424 59.4361 39.3202 60.1395 41.9177 59.887L42.1196 59.7153C42.0567 60.3609 42.0855 60.9925 42.2002 61.7404C39.1604 65.146 40.0539 65.7438 33.9772 66.9983C27.8282 68.2691 31.4403 70.5312 33.7988 71.1229C36.658 71.8396 43.2725 72.8551 47.7417 66.5813L47.5637 67.2972C48.7545 68.2539 49.5908 73.5194 49.4507 78.2931C49.3105 83.0664 49.217 86.3436 50.1551 88.9035C51.0941 91.4633 52.0292 97.2229 60.0178 95.5066C66.6925 94.0721 70.1516 90.3551 70.633 84.1545C70.9743 79.7466 71.7473 80.3983 71.7958 76.4571L72.4158 74.5916C73.1305 68.6162 72.5294 66.6884 76.6415 67.5851L77.6414 67.6732C80.6676 67.811 84.6293 67.1848 86.9545 66.1012C91.9608 63.7715 94.9302 59.8813 89.9936 60.9033H89.9943" fill="#336791"/>
<path d="M40.8211 30.8245C39.806 30.6828 38.8868 30.8138 38.4217 31.167C38.1604 31.3657 38.0793 31.5958 38.0574 31.7542C37.999 32.1739 38.2922 32.638 38.4725 32.8772C38.9823 33.5548 39.7269 34.0204 40.4639 34.123C40.5707 34.1382 40.6772 34.145 40.7828 34.145C42.0119 34.145 43.1296 33.1853 43.228 32.4769C43.3511 31.5897 42.0668 30.9984 40.8211 30.8248V30.8245ZM74.448 30.8526C74.3511 30.1572 73.1171 29.9589 71.946 30.1222C70.7764 30.2855 69.6425 30.815 69.7371 31.5119C69.8129 32.0538 70.7889 32.979 71.9441 32.979C72.0418 32.979 72.1403 32.9726 72.2395 32.9585C73.0107 32.8514 73.5765 32.3603 73.8454 32.0774C74.2545 31.6459 74.4916 31.1651 74.448 30.8526" fill="white"/>
<path d="M93.7427 60.6388C93.3132 59.3365 91.9307 58.9176 89.634 59.3931C82.8146 60.8044 80.3724 59.8268 79.5706 59.2347C84.8712 51.1374 89.2318 41.3493 91.5842 32.217C92.6985 27.8911 93.3139 23.8736 93.3643 20.599C93.42 17.005 92.8094 14.3639 91.5505 12.7505C86.4745 6.24643 79.0244 2.75761 70.0064 2.6619C63.8066 2.59202 58.5685 4.18299 57.5531 4.63039C55.4146 4.09716 53.0834 3.76977 50.5454 3.72799C45.8913 3.65241 41.8682 4.76978 38.5375 7.04743C37.0907 6.50735 33.3517 5.22022 28.779 4.48151C20.8737 3.20539 14.5918 4.17236 10.1089 7.35696C4.7598 11.1572 2.29034 17.9503 2.76871 27.547C2.92967 30.7757 4.76434 40.7082 7.65951 50.2202C11.4705 62.7399 15.6133 69.8273 19.9719 71.2853C20.4821 71.4558 21.0703 71.5751 21.7191 71.5751C23.3091 71.5751 25.2585 70.8565 27.2867 68.4114C29.7606 65.4355 32.3196 62.5319 34.9606 59.7041C36.6741 60.6263 38.5565 61.1413 40.4816 61.1929C40.4854 61.2434 40.4904 61.294 40.4949 61.3441C40.1635 61.7404 39.839 62.1424 39.5215 62.55C38.1876 64.248 37.9099 64.6016 33.616 65.4881C32.3946 65.741 29.1506 66.4114 29.1028 68.6917C29.0513 71.1831 32.9377 72.2295 33.3805 72.3404C34.9235 72.7278 36.4101 72.9188 37.8277 72.9188C41.2755 72.9188 44.3097 71.7825 46.7344 69.5838C46.6598 78.4658 47.0291 87.2178 48.0926 89.8844C48.9638 92.0675 51.0916 97.4025 57.8129 97.4021C58.7992 97.4021 59.8847 97.287 61.0789 97.0303C68.0937 95.5225 71.14 92.4135 72.3183 85.5592C72.9489 81.8961 74.031 73.149 74.54 68.4569C75.6142 68.7931 76.997 68.9469 78.4919 68.9465C81.6098 68.9465 85.2075 68.2822 87.4637 67.2321C89.9983 66.0517 94.5721 63.1553 93.7427 60.6388V60.6388ZM77.0375 28.9333C77.0144 30.3184 76.8243 31.5759 76.6228 32.8885C76.4057 34.3002 76.1815 35.7598 76.1251 37.5315C76.0694 39.2558 76.2842 41.0485 76.4917 42.7822C76.9114 46.284 77.342 49.889 75.6751 53.4462C75.3982 52.9542 75.1516 52.4457 74.9366 51.9236C74.7294 51.42 74.2794 50.611 73.6564 49.4914C71.2328 45.1328 65.5572 34.9261 68.4626 30.7612C69.328 29.5216 71.5244 28.247 77.0375 28.9333V28.9333ZM70.3548 5.46671C78.4351 5.64559 84.8269 8.67676 89.3522 14.4755C92.8231 18.9233 89.0011 39.1616 77.9367 56.6213C77.8254 56.4794 77.7135 56.338 77.6011 56.1971L77.4609 56.0216C80.3201 51.2867 79.7611 46.6019 79.2634 42.4484C79.0589 40.7439 78.8657 39.1339 78.915 37.6215C78.9657 36.0188 79.1771 34.6439 79.3816 33.3146C79.6327 31.6766 79.8884 29.9815 79.8179 27.9834C79.8706 27.7738 79.8918 27.5261 79.8641 27.2322C79.6842 25.3161 77.5026 19.5815 73.0561 14.3912C70.6237 11.5522 67.0767 8.3752 62.2337 6.23238C64.3168 5.79941 67.1654 5.39569 70.3548 5.46671V5.46671ZM25.1404 66.6218C22.9057 69.3161 21.3627 68.7995 20.8552 68.6301C17.5487 67.5242 13.7119 60.5161 10.3293 49.4032C7.40234 39.7875 5.6919 30.1182 5.55631 27.4069C5.12908 18.8318 7.20198 12.8557 11.7178 9.6441C19.0671 4.41809 31.15 7.5461 36.0052 9.13252C35.9355 9.20164 35.8628 9.26621 35.7939 9.33647C27.8265 17.4049 28.0155 31.19 28.0351 32.0328C28.0344 32.3579 28.0617 32.8182 28.0988 33.4514C28.2359 35.77 28.4912 40.0853 27.8094 44.9721C27.1761 49.5134 28.5722 53.9582 31.639 57.1671C31.9537 57.4958 32.2845 57.8086 32.6301 58.1044C31.2651 59.5704 28.2984 62.8124 25.1404 66.6218V66.6218ZM33.6543 55.2305C31.1826 52.6441 30.0599 49.0466 30.5739 45.3595C31.2935 40.1973 31.028 35.7013 30.8852 33.2858C30.8652 32.9477 30.8474 32.6515 30.8371 32.4179C32.001 31.383 37.3948 28.4851 41.2414 29.3689C42.9965 29.7719 44.0661 30.9705 44.5108 33.0321C46.8121 43.7055 44.8153 48.1541 43.2109 51.7291C42.8803 52.4656 42.5678 53.1617 42.3012 53.8818L42.0944 54.4386C41.5709 55.8461 41.0839 57.1549 40.782 58.3976C38.1542 58.39 35.598 57.2643 33.6543 55.2301V55.2305ZM34.0577 69.6248C33.2903 69.4326 32.6002 69.0988 32.1953 68.8219C32.5336 68.6624 33.1354 68.4452 34.1792 68.2295C39.2306 67.1869 40.0109 66.4509 41.7145 64.2818C42.105 63.7843 42.5477 63.2207 43.1609 62.534L43.1617 62.5332C44.0748 61.5078 44.4926 61.6817 45.2501 61.997C45.8641 62.2514 46.4621 63.0232 46.7045 63.8724C46.8193 64.2735 46.9481 65.0346 46.5265 65.6271C42.9678 70.6237 37.7819 70.5595 34.0577 69.6248V69.6248ZM60.4941 94.2935C54.3144 95.6212 52.1263 92.4594 50.6844 88.8449C49.7538 86.5114 49.2963 75.9887 49.6209 64.368C49.6251 64.2135 49.6031 64.0642 49.5607 63.9237C49.5227 63.6462 49.465 63.3718 49.388 63.1026C48.9054 61.4117 47.7294 59.9973 46.3186 59.4109C45.758 59.1781 44.7293 58.7508 43.4931 59.068C43.7567 57.9787 44.2139 56.7485 44.7096 55.4166L44.9176 54.8564C45.1516 54.2248 45.4456 53.5704 45.7561 52.8776C47.4351 49.1374 49.7345 44.0143 47.2389 32.4407C46.3042 28.1057 43.1825 25.9887 38.4504 26.4805C35.6136 26.7749 33.018 27.9226 31.7234 28.5808C31.445 28.7221 31.1905 28.8588 30.9527 28.9918C31.314 24.6241 32.679 16.4615 37.7853 11.297C41.0005 8.04591 45.2823 6.44013 50.4992 6.52672C60.7785 6.69535 67.3703 11.9852 71.0904 16.3935C74.2961 20.1919 76.0319 24.0183 76.7247 26.0821C71.5149 25.5508 67.9717 26.582 66.1757 29.157C62.2681 34.7582 68.3134 45.6296 71.2188 50.8545C71.7517 51.8119 72.2115 52.6395 72.3561 52.9912C73.3023 55.2905 74.5271 56.8256 75.4214 57.946C75.6956 58.2894 75.9615 58.6225 76.1637 58.9134C74.5859 59.3695 71.7517 60.4235 72.01 65.6916C71.8017 68.335 70.3204 80.7111 69.5678 85.0837C68.5743 90.8605 66.4545 93.012 60.4941 94.2938V94.2935ZM86.2885 64.6935C84.675 65.4444 81.9749 66.0076 79.41 66.1288C76.5769 66.2617 75.1347 65.8105 74.7953 65.5329C74.6362 62.2499 75.8547 61.907 77.1443 61.5439C77.3469 61.4869 77.5446 61.4311 77.7355 61.3642C77.8541 61.4611 77.984 61.5572 78.1264 61.6513C80.4035 63.1584 84.4648 63.3209 90.1987 62.1341L90.2616 62.1215C89.4882 62.8466 88.1648 63.8196 86.2885 64.6935Z" fill="white"/>
</svg>

<svg width="97" height="100" fill="none" xmlns="http://www.w3.org/2000/svg"><path d="M96.472 59.902c-.582-1.766-2.105-2.995-4.074-3.29-.929-.14-1.992-.08-3.251.18-2.194.454-3.821.627-5.009.66 4.483-7.59 8.129-16.246 10.227-24.393 3.394-13.175 1.58-19.177-.539-21.892C88.218 3.981 80.036.121 70.166.003c-5.267-.065-9.89.978-12.3 1.728-2.246-.398-4.66-.62-7.193-.66-4.749-.076-8.944.962-12.529 3.095a56.996 56.996 0 0 0-8.848-2.227C20.644.514 13.672 1.624 8.57 5.237 2.396 9.612-.467 17.212.062 27.827c.168 3.37 2.048 13.625 5.009 23.35 1.701 5.59 3.515 10.232 5.392 13.798 2.661 5.058 5.51 8.035 8.706 9.105 1.792.599 5.048 1.018 8.472-1.842.434.527 1.013 1.05 1.782 1.537.976.618 2.17 1.122 3.361 1.42 4.296 1.078 8.319.808 11.752-.701.02.612.037 1.197.05 1.702.023.82.046 1.623.076 2.374.203 5.08.548 9.029 1.57 11.792.055.152.13.384.21.63.51 1.564 1.361 4.182 3.529 6.232C52.215 99.35 54.929 100 57.415 100c1.247 0 2.437-.164 3.48-.388 3.72-.8 7.944-2.017 11-6.38 2.889-4.125 4.293-10.337 4.547-20.126l.093-.793.06-.517.68.06.176.012c3.788.173 8.42-.633 11.265-1.958 2.248-1.046 9.452-4.86 7.756-10.008" fill="#000"/><path d="M89.994 60.903c-11.264 2.33-12.038-1.494-12.038-1.494C89.848 41.713 94.82 19.251 90.53 13.753 78.825-1.243 58.564 5.85 58.226 6.033l-.109.02c-2.225-.463-4.716-.74-7.515-.785-5.096-.084-8.963 1.34-11.896 3.57 0 0-36.145-14.93-34.463 18.78.357 7.17 10.25 54.262 22.05 40.038 4.313-5.2 8.48-9.599 8.48-9.599 2.07 1.38 4.547 2.082 7.145 1.83l.202-.172c-.063.646-.034 1.277.08 2.025-3.04 3.406-2.146 4.004-8.223 5.258-6.149 1.271-2.537 3.533-.178 4.125 2.859.717 9.474 1.732 13.943-4.542l-.178.716c1.19.957 2.027 6.222 1.887 10.996-.14 4.773-.234 8.05.704 10.61.94 2.56 1.874 8.32 9.863 6.604 6.674-1.435 10.134-5.152 10.615-11.353.341-4.407 1.114-3.756 1.163-7.697l.62-1.865c.715-5.976.113-7.904 4.225-7.007l1 .088c3.027.138 6.988-.488 9.313-1.572 5.007-2.33 7.976-6.22 3.04-5.198" fill="#336791"/><path d="M40.821 30.825c-1.015-.142-1.934-.011-2.4.342a.883.883 0 0 0-.364.587c-.058.42.235.884.415 1.123.51.678 1.255 1.143 1.992 1.246.107.015.213.022.319.022 1.229 0 2.347-.96 2.445-1.668.123-.887-1.161-1.479-2.407-1.652zm33.627.028c-.097-.696-1.33-.894-2.502-.73-1.17.162-2.303.692-2.209 1.389.076.542 1.052 1.467 2.207 1.467.098 0 .196-.006.296-.02.77-.108 1.337-.599 1.605-.882.41-.431.647-.912.603-1.224" fill="#fff"/><path d="M93.743 60.639c-.43-1.303-1.812-1.721-4.109-1.246-6.82 1.411-9.262.434-10.063-.158 5.3-8.098 9.66-17.886 12.013-27.018 1.114-4.326 1.73-8.343 1.78-11.618.056-3.594-.555-6.235-1.814-7.848-5.075-6.505-12.526-9.993-21.544-10.09-6.2-.069-11.438 1.522-12.453 1.97a30.967 30.967 0 0 0-7.008-.903c-4.654-.076-8.677 1.042-12.008 3.32a53.486 53.486 0 0 0-9.758-2.566c-7.905-1.277-14.187-.31-18.67 2.875-5.35 3.8-7.819 10.593-7.34 20.19.16 3.229 1.995 13.161 4.89 22.673 3.811 12.52 7.954 19.607 12.313 21.065.51.17 1.098.29 1.747.29 1.59 0 3.54-.719 5.568-3.164a201.14 201.14 0 0 1 7.674-8.707 12.337 12.337 0 0 0 5.52 1.489l.014.151c-.331.396-.656.798-.973 1.206-1.334 1.698-1.612 2.052-5.906 2.938-1.221.253-4.465.923-4.513 3.204-.052 2.491 3.835 3.538 4.277 3.648 1.543.388 3.03.579 4.448.579 3.447 0 6.482-1.136 8.906-3.335-.074 8.882.295 17.634 1.359 20.3.87 2.183 2.999 7.519 9.72 7.518.986 0 2.072-.115 3.266-.372 7.015-1.508 10.061-4.617 11.24-11.47.63-3.664 1.712-12.411 2.221-17.103 1.074.336 2.457.49 3.952.49 3.118 0 6.715-.665 8.972-1.715 2.534-1.18 7.108-4.077 6.279-6.593zM77.037 28.933c-.023 1.385-.213 2.643-.414 3.956-.217 1.411-.442 2.87-.498 4.642-.056 1.725.16 3.517.367 5.251.42 3.502.85 7.107-.817 10.664-.277-.492-.523-1-.738-1.522-.208-.504-.658-1.313-1.28-2.433-2.424-4.358-8.1-14.565-5.194-18.73.865-1.24 3.061-2.514 8.575-1.828zM70.355 5.467c8.08.179 14.472 3.21 18.997 9.009 3.471 4.447-.35 24.686-11.415 42.145a65.756 65.756 0 0 0-.336-.424l-.14-.175c2.86-4.735 2.3-9.42 1.802-13.574-.204-1.704-.397-3.314-.348-4.827.05-1.602.262-2.977.467-4.306.25-1.638.506-3.333.436-5.332.053-.21.074-.457.046-.75-.18-1.917-2.361-7.652-6.808-12.842-2.432-2.839-5.98-6.016-10.822-8.159 2.083-.433 4.931-.836 8.12-.765zM25.14 66.622c-2.234 2.694-3.777 2.177-4.285 2.008-3.306-1.106-7.143-8.114-10.526-19.227-2.927-9.615-4.637-19.285-4.773-21.996-.427-8.575 1.646-14.551 6.162-17.763 7.35-5.226 19.432-2.098 24.287-.511-.07.069-.142.133-.211.203-7.967 8.069-7.778 21.854-7.759 22.697 0 .325.027.785.064 1.418.137 2.319.392 6.634-.29 11.521-.633 4.541.763 8.986 3.83 12.195.315.329.646.642.991.937a205.3 205.3 0 0 0-7.49 8.518zm8.514-11.392c-2.471-2.586-3.594-6.183-3.08-9.87.72-5.163.454-9.659.311-12.074-.02-.338-.038-.635-.048-.868 1.164-1.035 6.558-3.933 10.404-3.05 1.755.404 2.825 1.603 3.27 3.664 2.301 10.674.304 15.122-1.3 18.697-.33.737-.643 1.433-.91 2.153l-.207.557c-.523 1.407-1.01 2.716-1.312 3.959-2.628-.008-5.184-1.134-7.128-3.168zm.404 14.395c-.768-.192-1.458-.526-1.863-.803.339-.16.94-.377 1.984-.593 5.052-1.042 5.832-1.778 7.535-3.947.391-.498.834-1.061 1.447-1.748.914-1.026 1.332-.852 2.09-.537.613.254 1.211 1.026 1.454 1.875.114.401.243 1.163-.178 1.755-3.56 4.997-8.745 4.933-12.47 3.998zm26.436 24.668c-6.18 1.328-8.368-1.834-9.81-5.448-.93-2.334-1.388-12.856-1.063-24.477a1.403 1.403 0 0 0-.06-.444 5.893 5.893 0 0 0-.173-.821c-.483-1.691-1.659-3.106-3.07-3.692-.56-.233-1.589-.66-2.825-.343.264-1.09.72-2.32 1.217-3.651l.208-.56c.234-.632.528-1.287.838-1.98 1.68-3.74 3.978-8.863 1.483-20.436-.935-4.335-4.056-6.452-8.789-5.96-2.836.294-5.432 1.442-6.727 2.1-.278.141-.532.278-.77.41.361-4.367 1.726-12.53 6.832-17.694 3.216-3.251 7.497-4.857 12.714-4.77 10.28.168 16.871 5.458 20.591 9.866 3.206 3.799 4.942 7.625 5.635 9.69-5.21-.532-8.753.499-10.55 3.074-3.907 5.601 2.138 16.473 5.044 21.698.533.957.993 1.785 1.137 2.136.946 2.3 2.171 3.835 3.065 4.955.275.343.54.677.743.967-1.578.457-4.412 1.51-4.154 6.779-.208 2.643-1.69 15.02-2.442 19.392-.994 5.776-3.114 7.928-9.074 9.21zm25.794-29.6c-1.613.751-4.313 1.315-6.878 1.436-2.833.133-4.275-.319-4.615-.596-.159-3.283 1.06-3.626 2.35-3.99.202-.056.4-.112.59-.179.12.097.249.193.391.287 2.277 1.507 6.339 1.67 12.073.483l.063-.013c-.774.726-2.097 1.699-3.974 2.572z" fill="#fff"/></svg>
